icons/Retry.svg

<svg width="24" height="24" viewBox="0 0 24 24" fill="none" xmlns="http://www.w3.org/2000/svg">
<path fill-rule="evenodd" clip-rule="evenodd" d="M19.333 4.269C19.316 4.19122 19.2743 4.12104 19.214 4.069C19.1726 4.03904 19.1252 4.01856 19.075 4.009C19.0141 3.9928 18.9499 3.99447 18.89 4.0138C18.83 4.03313 18.7769 4.0693 18.737 4.118L17.187 6.075C15.9503 4.99065 14.4076 4.31672 12.7718 4.14617C11.1359 3.97562 9.48736 4.31685 8.0536 5.12279C6.61984 5.92874 5.47146 7.15969 4.76686 8.64588C4.06225 10.1321 3.83614 11.8003 4.11969 13.4204C4.40325 15.0405 5.1825 16.5328 6.34999 17.6913C7.51747 18.8498 9.01566 19.6176 10.6379 19.8886C12.2602 20.1597 13.9266 19.9208 15.4073 19.2048C16.888 18.4887 18.1101 17.3309 18.905 15.891C18.935 15.8318 18.9529 15.7671 18.9577 15.7009C18.9625 15.6346 18.954 15.5681 18.9328 15.5052C18.9116 15.4422 18.878 15.3842 18.8341 15.3344C18.7902 15.2845 18.7368 15.244 18.677 15.215L17.777 14.788C17.6616 14.7359 17.5308 14.7296 17.4109 14.7702C17.291 14.8109 17.1909 14.8955 17.131 15.007C16.5182 16.0786 15.5884 16.9339 14.4694 17.4551C13.3505 17.9764 12.0974 18.138 10.8829 17.9176C9.66826 17.6973 8.55184 17.1059 7.68728 16.2248C6.82272 15.3437 6.25254 14.2163 6.05523 12.9978C5.85792 11.7792 6.04319 10.5295 6.58553 9.42058C7.12787 8.31169 8.00061 7.39818 9.08361 6.80581C10.1666 6.21345 11.4066 5.97136 12.6329 6.11287C13.8591 6.25438 15.0114 6.77254 15.931 7.596L14.391 9.496C14.3533 9.54632 14.33 9.6059 14.3234 9.66842C14.3169 9.73094 14.3274 9.79407 14.3539 9.85109C14.3803 9.90811 14.4217 9.9569 14.4737 9.99227C14.5257 10.0276 14.5863 10.0483 14.649 10.052L20.222 10.122C20.2742 10.1208 20.3255 10.1085 20.3726 10.0859C20.4197 10.0633 20.4614 10.031 20.495 9.991C20.5267 9.95098 20.5487 9.9041 20.5591 9.8541C20.5695 9.8041 20.5681 9.75236 20.555 9.703L19.333 4.269Z" fill="black"/>
</svg>

<svg xmlns="http://www.w3.org/2000/svg" viewBox="0 0 24 24">
  <path d="M19.333 4.269a.368.368 0 00-.119-.2.348.348 0 00-.139-.06.328.328 0 00-.338.109l-1.55 1.957a7.947 7.947 0 101.718 9.816.5.5 0 00-.228-.676l-.9-.427a.5.5 0 00-.646.219 5.97 5.97 0 11-1.2-7.411l-1.54 1.9a.348.348 0 00.258.556l5.573.07a.368.368 0 00.273-.131.328.328 0 00.06-.288l-1.222-5.434z"/>
</svg>
